X:15
T:The Parting Glass
T:Harmony 1
C:Trad, Arr. Adam Blaine
L:1/8
R:Air
M:4/4
Q:"70 bpm"
K:D
{g}fe | {Gdc}d3B {gBd}B2{g}AB | {gc}d2{e}A2 {gef}e3 {g}d/e/ | {g}f3g {fg}fe {g}de |
{g}f4 e2 {g}fe | {g}f4 {gf}g4 [M:5/4] | {a}B2 e2 {ag}a6 [M:3/4] | de {g}Hd2 {g}Hc2  [Q:1/4=115] [M:4/4] | {g}d6 {g}ef  | {g}f4 {g}e4 | {ge}f8 |]

